X:5891
T:Scottish à Malochet
O:england
N:please mail errors to: simon.wascher@chello.at
M:2/4
L:1/16
K:G
B2B2B2 AB|dcBcA4|DEFG ABcd|edcd B2G2|
B2B2B2 AB|dcBcA4|DEFG ABcd|edcdG4:|
|:d2B2 A2GA|B2G2D4|DEFG ABcd|edcd B2G2|
d2B2 A2GA|B2G2D4|DEFG ABcd|edcdG4:|


